X: 1
T: the Duke of Fife's Welcome to Deeside
C: J. Scott Skinner
F: http://richardrobinson.tunebook.org.uk/tune/2541
M: 4/4
L: 1/16
O: Scotland
R: March
Z: Richard Robinson
K: A
E2 | \
[E2A,2]A2 A2Bc B2A2 A2Bc | d2ef e2a2 ecAc B2E2 | \
E2A2 A2Bc {c}B2A2 A2Bc | {c}d2ef ecBc {G}[A4A4] [A2E2] :|
cd | \
e2cA a2ga f2a2 e2c2 | d2ef e2a2 ecAc B2cd | \
e2cA a2ga f2a2 e2c2 | {c}d2ef ecBc {G}A4 [A2E2] ||
cd |\
e2cA a2ga f2a2 e2c2 | d2ef ecAa ecAc {c}B2E2 | \
[E2A,2]A2 A2Bc {c}B2A2 A2Bc | {c}d2ef ecBc {G}A6 |]
